Numix-GalliumOS/22/mimetypes/application-rss.svg

<?xml version="1.0" encoding="UTF-8" standalone="no"?>
<svg
   xmlns:dc="http://purl.org/dc/elements/1.1/"
   xmlns:cc="http://creativecommons.org/ns#"
   xmlns:rdf="http://www.w3.org/1999/02/22-rdf-syntax-ns#"
   xmlns:svg="http://www.w3.org/2000/svg"
   xmlns="http://www.w3.org/2000/svg"
   xmlns:sodipodi="http://sodipodi.sourceforge.net/DTD/sodipodi-0.dtd"
   xmlns:inkscape="http://www.inkscape.org/namespaces/inkscape"
   width="22"
   height="22"
   viewBox="0 0 22 22"
   id="svg2"
   version="1.1"
   inkscape:version="0.48.5 r10040"
   sodipodi:docname="application-rss.svg">
  <metadata
     id="metadata16">
    <rdf:RDF>
      <cc:Work
         rdf:about="">
        <dc:format>image/svg+xml</dc:format>
        <dc:type
           rdf:resource="http://purl.org/dc/dcmitype/StillImage" />
      </cc:Work>
    </rdf:RDF>
  </metadata>
  <defs
     id="defs14" />
  <sodipodi:namedview
     pagecolor="#ffffff"
     bordercolor="#666666"
     borderopacity="1"
     objecttolerance="10"
     gridtolerance="10"
     guidetolerance="10"
     inkscape:pageopacity="0"
     inkscape:pageshadow="2"
     inkscape:window-width="1280"
     inkscape:window-height="970"
     id="namedview12"
     showgrid="true"
     inkscape:zoom="5.6568543"
     inkscape:cx="15.633898"
     inkscape:cy="19.621884"
     inkscape:window-x="0"
     inkscape:window-y="0"
     inkscape:window-maximized="1"
     inkscape:current-layer="svg2">
    <inkscape:grid
       type="xygrid"
       id="grid3004"
       empspacing="5"
       visible="true"
       enabled="true"
       snapvisiblegridlinesonly="true" />
  </sodipodi:namedview>
  <path
     style="fill:#ff6401;fill-opacity:1"
     d="M 4,0 C 3.527343,0 3,0.527344 3,1 l 0,20 c 0,0.445312 0.554687,1 1,1 l 14,0 c 0.445313,0 0.992367,-0.554753 1,-1 L 19,6 13,0 z"
     id="path4"
     inkscape:connector-curvature="0"
     sodipodi:nodetypes="ssssssccs" />
  <path
     style="fill:#000000;fill-opacity:0.19599998"
     d="m 14,6 5,5 0,-5 z"
     id="path6"
     inkscape:connector-curvature="0"
     sodipodi:nodetypes="cccc" />
  <path
     style="fill:#ffffff;fill-opacity:0.39200003"
     d="m 13,0 6,6 -5,0 C 13.554688,6 13,5.445312 13,5 z"
     id="path8"
     inkscape:connector-curvature="0"
     sodipodi:nodetypes="ccssc" />
  <path
     style="fill:#ffffff"
     d="m 6,15.765705 c 0,-0.346612 0.1225099,-0.639904 0.3546312,-0.879866 0.2321219,-0.239966 0.5158266,-0.359948 0.8575613,-0.359948 0.3288397,0 0.6060969,0.119985 0.8317698,0.359948 0.2385709,0.239962 0.3546311,0.533254 0.3546311,0.879866 0,0.33995 -0.1160596,0.633239 -0.3546311,0.873203 -0.2256729,0.233298 -0.5029301,0.35328 -0.8317698,0.35328 -0.3417347,0 -0.6254394,-0.119985 -0.8575613,-0.35328 C 6.1225092,16.398944 6,16.112322 6,15.765705 m 0,-5.618012 0,2.066358 c 2.5533413,0 4.623095,2.146344 4.623095,4.785949 l 2.005276,0 C 12.628371,13.2139 9.6559191,10.147693 6,10.147693 z M 6,5.6283702 6,7.9080279 c 4.848769,0 8.781946,4.0727231 8.781946,9.0919721 L 17,17 C 17,10.720941 12.06741,5.6283702 6,5.6283702 z"
     id="path10"
     inkscape:connector-curvature="0"
     sodipodi:nodetypes="csscscscccccccccccc" />
</svg>

<svg xmlns="http://www.w3.org/2000/svg" viewBox="0 0 22 22">
 <path d="m 4 0 c -0.473 0 -1 0.527 -1 1 l 0 20 c 0 0.445 0.555 1 1 1 l 14 0 c 0.445 0 0.992 -0.555 1 -1 l 0 -15 -6 -6 z" style="fill:#ff6401;fill-opacity:1"/>
 <path d="m 14 6 5 5 0 -5 z" style="fill:#000;fill-opacity:0.196"/>
 <path d="m 13 0 6 6 -5 0 c -0.445 0 -1 -0.555 -1 -1 z" style="fill:#fff;fill-opacity:0.392"/>
 <path d="m 6 15.766 c 0 -0.347 0.123 -0.64 0.355 -0.88 0.232 -0.24 0.516 -0.36 0.858 -0.36 0.329 0 0.606 0.12 0.832 0.36 0.239 0.24 0.355 0.533 0.355 0.88 0 0.34 -0.116 0.633 -0.355 0.873 -0.226 0.233 -0.503 0.353 -0.832 0.353 -0.342 0 -0.625 -0.12 -0.858 -0.353 c -0.232 -0.24 -0.355 -0.527 -0.355 -0.873 m 0 -5.618 0 2.066 c 2.553 0 4.623 2.146 4.623 4.786 l 2.01 0 c 0 -3.786 -2.972 -6.852 -6.628 -6.852 z m 0 -4.519 0 2.28 c 4.849 0 8.782 4.073 8.782 9.09 l 2.218 0 c 0 -6.279 -4.933 -11.372 -11 -11.372 z" style="fill:#fff"/>
</svg>
